svg/editor/subtitle_line.svg

<svg xmlns="http://www.w3.org/2000/svg" width="24" height="24" viewBox="0 0 24 24"><g fill="none"><path d="M24,0 L24,24 L0,24 L0,0 L24,0 Z M12.5935,23.2578 L12.5819,23.2595 L12.5109,23.295 L12.4919,23.2987 L12.4767,23.295 L12.4057,23.2595 C12.3958,23.2564 12.387,23.259 12.3821,23.2649 L12.378,23.2758 L12.3609,23.7031 L12.3659,23.7235 L12.3769,23.7357 L12.4805,23.8097 L12.4953,23.8136 L12.5071,23.8097 L12.6107,23.7357 L12.6233,23.7197 L12.6267,23.7031 L12.6096,23.2758 C12.6076,23.2657 12.601,23.2593 12.5935,23.2578 Z M12.8584,23.1453 L12.8445,23.1473 L12.6598,23.2397 L12.6499,23.2499 L12.6472,23.2611 L12.6651,23.6906 L12.6699,23.7034 L12.6784,23.7105 L12.8793,23.8032 C12.8914,23.8069 12.9022,23.803 12.9078,23.7952 L12.9118,23.7812 L12.8777,23.1665 C12.8753,23.1546 12.8674,23.147 12.8584,23.1453 Z M12.143,23.1473 C12.1332,23.1424 12.1222,23.1453 12.1156,23.1526 L12.1099,23.1665 L12.0758,23.7812 C12.0751,23.7927 12.0828,23.8019 12.0926,23.8046 L12.1083,23.8032 L12.3092,23.7105 L12.3186,23.7024 L12.3225,23.6906 L12.3404,23.2611 L12.3372,23.2485 L12.3278,23.2397 L12.143,23.1473 Z"/><path fill="#09244B" d="M20.0002,4.00024 C21.1048,4.00024 22.0002,4.89567 22.0002,6.00024 L22.0002,18.0002 C22.0002,19.1048 21.1048,20.0002 20.0002,20.0002 L4.00024,20.0002 C2.89568,20.0002 2.00024,19.1048 2.00024,18.0002 L2.00024,6.00024 C2.00024,4.89568 2.89567,4.00024 4.00024,4.00024 L20.0002,4.00024 Z M20.0002,6.00024 L4.00024,6.00024 L4.00024,18.0002 L20.0002,18.0002 L20.0002,6.00024 Z M8.50024,8.00024 C9.89949,8.00024 11.0727,8.95728 11.4057,10.251 C11.5433,10.7858 11.2213,11.331 10.6865,11.4687 C10.1898071,11.5964714 9.6842849,11.3280413 9.50438328,10.8607714 L9.4688,10.7495 C9.35773,10.318 8.96483,10.0002 8.50024,10.0002 C7.94796,10.0002 7.50024,10.448 7.50024,11.0002 L7.50024,13.0002 C7.50024,13.5525 7.94796,14.0002 8.50024,14.0002 C8.92611417,14.0002 9.29174882,13.7332437 9.43528265,13.3563862 L9.4688,13.251 C9.60646,12.7161 10.1516,12.3941 10.6865,12.5318 C11.2213,12.6695 11.5433,13.2146 11.4057,13.7495 C11.0727,15.0432 9.89949,16.0002 8.50024,16.0002 C6.84339,16.0002 5.50024,14.6571 5.50024,13.0002 L5.50024,11.0002 C5.50024,9.34339 6.84339,8.00024 8.50024,8.00024 Z M15.5002,8.00024 C16.8995,8.00024 18.0727,8.95728 18.4057,10.251 C18.5433,10.7858 18.2213,11.331 17.6865,11.4687 C17.1898071,11.5964714 16.6843194,11.3280413 16.5043907,10.8607714 L16.4688,10.7495 C16.3577,10.318 15.9648,10.0002 15.5002,10.0002 C14.9874429,10.0002 14.5647041,10.3863133 14.5069289,10.8835945 L14.5002,11.0002 L14.5002,13.0002 C14.5002,13.5525 14.948,14.0002 15.5002,14.0002 C15.9260833,14.0002 16.2917187,13.7332437 16.4352758,13.3563862 L16.4688,13.251 C16.6065,12.7161 17.1516,12.3941 17.6865,12.5318 C18.2213,12.6695 18.5433,13.2146 18.4057,13.7495 C18.0727,15.0432 16.8995,16.0002 15.5002,16.0002 C13.9025714,16.0002 12.5965429,14.7513226 12.5052929,13.1764773 L12.5002,13.0002 L12.5002,11.0002 C12.5002,9.34339 13.8434,8.00024 15.5002,8.00024 Z"/></g></svg>

<svg xmlns="http://www.w3.org/2000/svg" width="24" height="24"><g fill="none"><path d="M24 0v24H0V0zM12.594 23.258l-.012.002-.071.035-.02.004-.014-.004-.071-.036c-.01-.003-.019 0-.024.006l-.004.01-.017.428.005.02.01.013.104.074.015.004.012-.004.104-.074.012-.016.004-.017-.017-.427c-.002-.01-.009-.017-.016-.018m.264-.113-.014.002-.184.093-.01.01-.003.011.018.43.005.012.008.008.201.092c.012.004.023 0 .029-.008l.004-.014-.034-.614c-.003-.012-.01-.02-.02-.022m-.715.002a.023.023 0 0 0-.027.006l-.006.014-.034.614c0 .012.007.02.017.024l.015-.002.201-.093.01-.008.003-.011.018-.43-.003-.012-.01-.01z"/><path fill="#09244B" d="M20 4a2 2 0 0 1 2 2v12a2 2 0 0 1-2 2H4a2 2 0 0 1-2-2V6a2 2 0 0 1 2-2zm0 2H4v12h16zM8.5 8a3 3 0 0 1 2.906 2.251 1 1 0 0 1-1.902.61l-.035-.112A1 1 0 0 0 7.5 11v2a1 1 0 0 0 1.935.356l.034-.105a1 1 0 1 1 1.937.498A3 3 0 0 1 5.5 13v-2a3 3 0 0 1 3-3m7 0a3 3 0 0 1 2.906 2.251 1 1 0 0 1-1.902.61l-.035-.112a1.001 1.001 0 0 0-1.962.135L14.5 11v2a1 1 0 0 0 1.935.356l.034-.105a1 1 0 1 1 1.937.498 3 3 0 0 1-5.9-.573L12.5 13v-2a3 3 0 0 1 3-3"/></g></svg>
